X:1
T:DE TERUGKOMST UIT DEN STRIJD.
T:DE TERUGKOMST UIT DEN STRIJD.
T:Le retour du Combat.
T:P. GUÉMARO.
C:P. GUÉMARO.
%%score { 1 | 2 }
L:1/8
Q:1/4=140
M:4/4
K:C
V:1 treble nm="Piano" snm="Pno."
V:2 bass 
V:1
"^Allegro agitato."!mf! z4"^De mobilisatie." z2 z B,/C/ | DD/E/"^La mobilisation." F4 z D/E/ | %2
 FF/G/ A4 z3/2 A/ | d>A F>A d>e f>d | f>d A>d f>g a>f | a>f d>e f4 | %6
!f! (G/A/B/c/ d/c/B/A/) (G/A/B/c/ d2) | (B/c/d/e/ f/e/d/c/ B/c/d/e/ f2) | %8
 (a/g/f/e/ d/e/f/g/) (a/g/f/e/ d/e/f/g/) | (a/g/f/e/ d/c/B/A/) (d/c/B/A/ G/F/E/D/) || %10
!ff!"^All .    marziale" [EGc]2 [Gce]2 [ceg]3"^o" e | [GBd][ce] [GBd][ce] [GBd]3 [^ce] | %12
 [df]>[eg] [fa]>[df] [Bd]>[Ac] [GB]>[Ac] | [Bd]>[Ac] [GB]>[FA] [FGd]2 G2 | [EGc]2 [Gce]2 [ceg]3 e | %15
 [GBd][ce] [GBd][ce] [GBd]3 [^ce] | [df]>[eg] [fa]>[df] [Bd]>[Ac] [GB]>[Ac] | g>f e>d [Ec]4 || %18
!mf! [GBd]2 [Gce]2 [GBd]g/^f/ g2 | [Gce]2 [Gdf]2 [Gce]c'/b/ c'2 | [cfa]>f c>a [ceg]>e c2 | %21
 A>F C>A G>E C2 |!p! [D^F]!<(![EG] [FA][GB] [Ac][GB] [Ac][FA]!<)! | G2 d>d g4 | %24
!mf! [D^F]!<(![EG] [FA][GB] [Ac][GB] [Ac][FA]!<)! |!>(! [G,G]8!>)! ||!ff! [EGc]2 [Gce]2 [ceg]3 e | %27
 [GBd][ce] [GBd][ce] [GBd]3 [^ce] | [df]>[eg] [fa]>[df] [Bd]>[Ac] [GB]>[Ac] | %29
 [Bd]>[Ac] [GB]>[FA] [FGd]2 (3GGG | [EGc]2 [Gce]2 [ceg]3 e | [GBd][ce] [GBd][ce] [GBd]3 [^ce] | %32
 f>g [Aa]>f [Bd]>[Ac] [GB]>G | [Gg]>f e>d [EGc]4 || %34
[K:Eb][M:6/8]!f![Q:1/4=160]"^Allegro""^De cavalerie trekt naar de grenzen. La Cavalerie marche aux frontières." B2 B e2 B | %35
 eBe g3 | B,2 B, E2 B, | EB,E G3 |!f! z6 | z6 |!p! C2!<(! C F2 C | FCF A3 | c2 c f2 c | %43
 fcf a3!<)! |!f! [Acf]2 F F3 | [Acf]2 F F3 | [Acf]2 F [Acf]2 F | [Acf]6 | %48
"^Infanterie trekt voorbij. L' Infanterie passe."!p! z6 | z6 | z6 | z6 | z6 | z6 | %54
!mf! [G,E]2 z [G,D]2 z | [G,C]3- [G,C]2 [G,D] | [G,E]2 z [G,D]2 z | [G,C]3- [G,C]2 D | %58
!<(! [G,E]2 z [B,F]2 z | [EG]2 z [GB]2 z!<)! |!>(! [Af]2 B A2 G!>)! | [A,F]6 | %62
!p! [DF]2 [C=E] [DF]2 [EG] | [FA]6 |!<(! [FA]2 [=EG] [FA]2 [GB]!<)! | [Ac]6 | %66
!<(! [Ac]2 [G=B] [Ac]2 [_B=e] | [Af]2 g a2 g!<)! |!>(! f2 e d2 c | [Ae]2 d [Ac]2 B!>)! | %70
!p! [G,E]2 z [G,D]2 z | [G,C]3- [G,C]2 [G,D] | [G,E]2 z [G,D]2 z | [G,C]3- [G,C]2 D | %74
!<(! [G,E]2 z [B,F]2 z | [EG]2 z [GB]2 z!<)! ||[K:D] [Fd]2 B [^E^G]2 [FA] | [df]6 | %78
 [ce]3- [ce]2 [eg] | [df]3 [Fd]3 | [Ace]3 [df]2 [eg] | [df]3 [Fd]3 | [GB]3 [Ge]3 | [FA]3- [FA]2 d | %84
 [EGd]2 c [EGB]2 c ||"^Più lento""^De Artillerie op weg. L' Artillerie marche." z6 | !>![G,D]6 | %87
 z6 | !>![G,D]6 | !>!_A,3 !>!=F,3 | !>!_A3 !>!=F3 | !>!=A,3 !>!^F,3 | !>!=A3 !>!^F3 | %93
 [=c=c']3 c2 d | [_E_e]6 | [=c=c']3 c2 d | [=E=e]6 | %97
!mf! G,G,G,!<(! G,G,"^De aanval. L' attaque."G, | _A,3 G,3!<)! | GGG!<(! GGG | _A3 G3!<)! || %101
[K:C][M:2/4]!f![Q:1/4=95] (g/a/b/c'/ d'2) |[K:bass] G,,4 |[K:treble] (g/a/b/c'/ d'2) | %104
[K:bass] G,,4 |[K:treble]!ff! (_a/g/f/_e/ d2) | (_a/g/f/_e/ d2) | %107
!<(! (G,/^G,/A,/^A,/ B,/C/^C/D/)!<)! |!>(! (_E/D/_D/C/ B,/_B,/A,/_A,/)!>)! | %109
 (_A,/_B,/C/_D/!f! _E>E) | _A,4 | (_A/_B/c/_d/ _e>e) | _A4 | %113
!<(! (_A,/=A,/_B,/=B,/ C/^C/D/^D/)!<)! |!>(! (E/_E/D/_D/ C/B,/_B,/A,/)!>)! |!f! e>e a>e | %116
 (3aea [cc']2- | [cc']4 |!mf! E>E A>E | (3AEA [Cc]2- | [Cc]4 | %121
!ff! (3[eae'][eae'][eae'] [eae']>[eae'] | E4 | (3[eae'][eae'][eae'] [eae']>[eae'] | E4 | %125
 _A>A _e>A |"_cresc." !///-!_e2 _A2 | !///-!_e2 _A2 | !///-!_e2 =A2 | !///-!_e2 =A2 || %130
[K:Bb][M:4/4]!f!"^Allegro marziale""^De overwinning. La Victoire."[Q:1/4=140] [FBd]4 [GBd]4 | %131
 [FBdf]3 d [DFB]2 B2 | [GBeg]4 [FAf]4 | [GBd]6 d>d | [Gce]4 [GBd]4 | [DGB]3 A [B,DG]2 d2 | %136
 [FAc]2 [Acf]4 [B=eg]>a | [FAcf]6 c>c | [Gce]4 [GBd]4 | [DGB]6 d>e | [Bdf]4 [Adf]4 | [GBd]6 B>d | %142
 [Ff]2 [Ff]>[Ff] [Gg]>[Aa] [Bb]>B | [Gce]2 [GBd]2 [Ac]3 d | [FBd]6 B>d | %145
 [Ff]2 [Ff]>[Ff] [Gg]>[Aa] [Bb]>B | [FAc]6 [FAc]2 ||[K:A][M:4/4]!p!"^Lento" ([EAc]6 [^D^B]>[Ec]) | %148
 ([EAc]6 [^D^B]>[Ec]) | ([ce]2 [ce]2 [fa]3 [df] | [ce]6) (d>c | [DF]6) (c>B | [CE]6) (G>A | %153
 [DF]2 [FA]2 [Fd]2 [df]2) | [ce]6 e>^d | [^B^d]6 [df]>[ce] | [ce]6 [^df]>[ce] | [ce]6 a>g | %158
 [eg]6 [Gdf]>e | ([ec']2 [ca]2 [eg]2 [df]2) | ([ce]2 [Ac]2 [FA]2 [DF]2 | [ce]4 [Bd]4 | %162
 [Ac]6) ([Gdf]>e) | ([ce]2 [ca]2 [ce]2 [df]2) | ([DF]4 [Fd]2 [DF]2 | [EG]6 A2) | %166
 ([EAc]6 [^D^B]>[Ec]) | ([EAc]6 [^D^B]>[Ec]) | ([ce]2 [ce]2 [fa]2 [df]2) | %169
 ([CE]2 [CE]2 [FA]2 [DF]2) | [CE]8 | [A,C]8 | !fermata![ce]8 || %173
!mf!"^Allegro" (!//-!_b2 a2) (!//-!b2 a2) | (!//-!_b2 a2)!<(! (!//-!b2 a2)!<)! | %175
!f! (!//-!f2 ^e2) (!//-!f2 e2) |!p!!<(! (!//-!E2 e2) (!//-!E2 e2)!<)! | %177
!ff!{=c'd'} e'2!p! (!//-!E3 e3) | (!//-!E2 e2) (!//-!E2 e2) |!ff!{^c'd'} e'2!p! (!//-!E3 e3) | %180
!mf! (!//-!g2!<(! ^^f2) (!//-!g2 f2)!<)! | (!//-!g2 ^^f2) (!//-!g2 f2) | %182
 (!//-!g2 ^^f2) (!//-!g2 f2) | (!//-!g2 ^^f2) (!//-!g2 f2) | (!//-!c2 f2) (!//-!c2 f2) | %185
 (!//-!^B2 ^d2) (!//-!B2 d2) | (!//-!^B2 ^d2) (!//-!B2 d2) | .G.g .G.g .G.g .G.g || %188
[K:E][M:2/4] .g.G .^^f.^^F | .g.G .e.E | .g.G .^^f.^^F | .g.G .e.E |!<(! (!//-!^B2 d2)!<)! | %193
!>(! (!//-!^B2 d2)!>)! |!<(! (!//-!^B2 d2)!<)! |!>(! (!//-!^B2 d2)!>)! | .g.G .^^f.^^F | %197
 .g.G .e.E | .g.G .^^f.^^F | .g.G .e.E |!<(! (!//-!a2 c'2)!<)! | (!//-!a2 c'2) | (!//-!a2 c'2) | %203
!<(! (!//-!a2 c'2)!<)! ||[M:4/4]!f! (!//-!e'2 e2) (!//-!e'2 e2) | (!//-!e'2 e2) (!//-!e'2 e2) || %206
[K:A]!ff! AA/A/ AA AE Ac | [ce]2 [ce][ce]/[ce]/ [ce]4 | %208
 [=CE=G][CEG]/[CEG]/ [CEG][CEG] [CEG][=G,CE] [CEG][EG=c] | [=G=ce]2 [Gce]>[Gce] [Gce]4 | %210
 =cc/c/ cc c=Gc=g | e=c=Gc e4 | (e=cE=G c4) || %213
[K:F]!mf!"^De terugkomst. Le retour." [Ac]2 [Af]2 [Ac]3 [FA] | [Ac]>[GB] [FA]>[EG] [FA]F/F/ (3FCF | %215
 [Ac]2 [Af]2 [Ac]3 d | [ce]>g [=Bd]>g cc/c/ (3ccc | [Bd]2 [GB]>[Ac] [Bd]d/d/ (3ddd | %218
 [Bd]2 [GB]>[Ac] [Bd]d/d/ (3ddd | [df]3 [ce] [Bd]>[A^c] [Bd]>[df] | [^ce]!<(!A/A/ AA AAAA!<)! | %221
!f! [Ac]2 [Af]2 [Ac]3 [FA] | [Ac]>[GB] [FA]>[EG] [FA]F/F/ (3FCF | [Ac]2 [Af]2 [Ac]3 d | %224
 [ce]>g [=Bd]>g cc/c/ (3ccc | [Bd]2 [GB]>[Ac] [Bd]d/d/ (3ddd | [^ce]2 [Ac]>[=Bd] [ce]4 | %227
 [df]3 [^ce] [eg]>[df] [=ce]>[Bd] | [Ac]>[FA] [DF]>D [B,EA]2 [B,EG]2 |!ff! FF/F/ FF FC FA | %230
 cc/c/ cc cAcf | [ceg]4 [ceg]3 [cfa] | [cfa]4 [Acf]4 | FF/F/ FF FC FA | cc/c/ cc cAcf | %235
 [ceg]4 [egc']4 | [Acf]4 [B,D]4 | [Acf]4 [B,D]4 | [cfa]8- | [cfa]2 z2 z4 |] %240
V:2
 !/!G,,4 !/!G,,4 | !/![G,,G,]4 !/![G,,G,]4 |"^poco à poco cresc." !/![G,,D,G,]4 !/![G,,D,G,]4 | %3
 D,>F, A,>F, D,>A,, D,>F, | D,>F, A,>F, D,>A,, D,>F, | !///-!D,,2 D,2 F,>D, A,,>D, | %6
 !///-!G,,2 G,2 [G,,G,]2 (G,/B,/C/D/) | (G,/A,/B,/C/ D/C/B,/A,/ G,/A,/B,/C/ D2) | %8
 (G,/A,/B,/C/ D/C/B,/A,/) (G,/A,/B,/C/ D/C/B,/A,/) | %9
 (F/E/D/C/ B,/A,/G,/F,/) (B,/A,/G,/F,/ G,/F,/E,/D,/) || [C,,C,]6 [C,,C,]2 | %11
 [G,,G,]C, [G,,G,]C, [G,,G,]4 | [G,,G,]>[A,,A,] [B,,B,]2 [G,,G,]4 | %13
 G,,>A,, B,,>B,, !///-!G,,2 G,2 | [C,,C,]6 [C,,C,]2 | [G,,G,]C, [G,,G,]C, [G,,G,]4 | %16
 [G,,G,]>[A,,A,] [B,,B,]2 [G,,G,]4 | [G,,G,]>[A,,A,] [B,,B,]2 [C,C]4 || %18
 [G,,G,]2 [C,,C,]2 [G,,G,]4 | [C,C]2 [B,,B,]2 [C,C]4 | [F,,F,]4 (C,/D,/E,/F,/ G,2) | %21
 F,,4 (C,/B,,/A,,/G,,/ C,2) | !/![D,,D,]4"_Copyright by B. H. SMIT, Amsterdam." !/![D,,D,]4 | %23
 G,2 D,2 [G,,G,]4 | !/![D,,D,]4 !/![D,,D,]4 | (G,,B,,D,.E, F,E,F,D,) || [C,,C,]6 [C,,C,]2 | %27
 [G,,G,]C, [G,,G,]C, [G,,G,]4 | [G,,G,]>[A,,A,] [B,,B,]2 [G,,G,]4 | G,,>A,, B,,>C, !///-!G,,2 G,2 | %30
 [C,,C,]6 [C,,C,]2 | [G,,G,]C, [G,,G,]C, [G,,G,]4 | [G,,G,]>[A,,A,] [B,,B,]2 [G,,G,]4 | %33
 [G,,G,]2 G,,2 [C,C]4 ||[K:Eb][M:6/8] z6 | z6 | z6 | z6 | !///-!!>!B,,,3 B,,3 | !///-!B,,,3 B,,3 | %40
 !///-!B,,,3"^cresc." B,,3 | !///-!B,,,3 B,,3 | !///-!B,,,3 B,,3 | !///-!B,,,3 B,,3 | F,,3 F,3 | %45
 F,,3 F,3 | [F,,F,]3 [F,,F,]3 | [F,,F,]6 |{/=A,,} B,,3{/A,,} B,,3 | %49
{/=A,,} B,,B,,B,, [B,,,B,,]2 B,, |{/=A,,} B,,3{/A,,} B,,3 |{/=A,,} B,,B,,B,, [B,,,B,,]2 B,, | %52
{/=A,} B,2 B,,{/A,} B,2 B,, | B,2 B,, B,2 B,, | [E,,B,,]2 z [B,,,B,,]2 z | %55
 [E,,B,,]2 z [B,,,B,,]2 z | [E,,B,,]2 z [B,,,B,,]2 z | [E,,B,,]2 z [B,,,B,,]2 z | %58
 [E,,B,,]2 z [B,,,B,,]2 z | [E,,B,,]2 z [B,,,B,,]2 z | [F,,C,]2 z [C,,C,]2 z | %61
 [F,,C,]2 z [C,,C,]2 z | [F,,C,]2 z [C,,C,]2 z | [F,,C,]2 z [C,,C,]2 z | [F,,C,]2 z [C,,C,]2 z | %65
 [F,,C,]2 z [C,,C,]2 z | [F,,C,]2 z [C,,C,]2 z | [F,,C,]2 z [C,,C,]2 z | [B,,,B,,]2 z B,2 z | %69
 B,,,2 z B,,2 z | [E,,B,,]2 z [B,,,B,,]2 z | [E,,B,,]2 z [B,,,B,,]2 z | [E,,B,,]2 z [B,,,B,,]2 z | %73
 [E,,B,,]2 z [B,,,B,,]2 z | [E,,B,,]2 z [B,,,B,,]2 z | [E,,B,,]2 z [B,,,B,,]2 z || %76
[K:D] A,,3{/^G,} A,3 | A,,3{/^G,} A,3 | A,,3{/^G,} A,3 | A,,3{/^G,} A,3 | A,,3{/^G,} A,3 | %81
 A,,3{/^G,} A,3 | G,,3{/F,} G,3 | A,,3{/^G,} A,3 | A,,3 A,3 || !>!G,,3 !>!_A,,3 | %86
 !>!G,,3 !>!G,,,3 | !>!G,,3 !>!_A,,3 | !>!G,,3 !>!G,,,3 | !>!_A,,3 !>!=F,,3 | %90
 !>![_A,,_A,]3 !>![=F,,=F,]3 | !>!=A,,3 !>!^F,,3 | !>![=A,,=A,]3 !>![^F,,^F,]3 | [F,,G,]6 | %94
 [F,,F,]2 [G,,G,] [A,,A,]2 [F,,F,] | [G,,G,]6 | [G,,G,]2 [B,,B,] [=C,=C]2 G, | G,,6 | _A,,3 G,,3 | %99
 G,G,G, G,G,G, | _A,3 G,3 ||[K:C][M:2/4]"^Het gevecht""^Le Combat." !//-!G,2 D2 | !//-!G,2 D2 | %103
 !//-!G,2 D2 | !//-!G,2 D2 | z2[K:treble] _AG | z2 !>!_A!>!G | %107
[K:bass] (G,,/^G,,/A,,/^A,,/ B,,/C,/^C,/D,/) | (_E,/D,/_D,/C,/ B,,/_B,,/A,,/_A,,/) | _A,,4 | %110
 !/!A,,4 | !/![_A,,_A,]2 !/![_G,,_G,]2 | !/![_A,,_A,]2 !/![_G,,_G,]2 | %113
 (_A,,/=A,,/_B,,/=B,,/ C,/^C,/D,/^D,/) | (E,/_E,/D,/_D,/ C,/B,,/_B,,/A,,/) | !/![E,,E,]4 | %116
 !/![_E,,_E,]2 !/![D,,D,]2 | !/![_D,,_D,]2 !/![C,,C,]2 | !/![E,,E,]4 | !/![_E,,_E,]2 !/![D,,D,]2 | %120
 !/![_D,,_D,]2 !/![C,,B,,]2 | A,,B,, C,D, | !///-!A,,2 ^G,,2 | A,,B,, C,D, | !///-!A,,2 ^G,,2 | %125
 [_A,,_A,]2 [C,C]2 | !///-!_A,2 _E2 | !///-!_A,2 _E2 | !///-!F,2 C2 | !///-!F,2 C2 || %130
[K:Bb][M:4/4] [B,,B,]4 [G,,G,]4 | [B,,B,]4 [B,,B,]4 | [E,,E,]4 [F,,F,]4 | %133
 [G,,G,]2 G,,>G,, G,,2 [D,,D,]2 | [C,,C,]4 [G,,G,]4 | G,,3 A,, B,,4 | [C,,C,]4 [C,,C,]4 | %137
 [F,,F,]2 C,2 F,,2 z2 | [C,,C,]4 [G,,G,]4 | G,,3 B,, D,4 | [B,,B,]4 [D,D]4 | %141
 [G,,G,]2 [A,,A,]2 [G,,G,]4 | [D,D]4 [E,E]2 [D,D]2 | [C,C]2 [G,,G,]2 [F,,F,]4 | B,>A, B,>C D4 | %145
 [D,D]4 [E,E]2 [D,D]2 | [F,,F,]4 [F,,F,]4 ||[K:A][M:4/4] (A,,B,,C,E,"^Het gebed, La Prière." A,4) | %148
 (A,E,C,B,, A,,4) | [A,,A,]4 [F,,F,]4 | (A,B,A,B, C2) z2 | !/![D,,D,]4 !/![D,,D,]4 | %152
 (A,G,A,E, C,4) | (D,C,D,C, D,C,D,C,) | (A,,G,A,G, A,4) | (G,A,G,^^F, G,4) | (G,A,G,^^F, G,4) | %157
 (G,A,G,^^F, G,4) | (G,A,G,^^F, G,2 E,2) | (A,,C,E,A,) (D,F,A,.D) | (A,,C,E,A,) D,4 | %161
 (E,,E,^D,E, F,E,D,E,) | (A,,G,,A,,B,, C,D, E,2) | (A,,C,E,A,) A,,4 | D,F,B,D D,4 | %165
 E,,2 E,2 ^D,2 E,2 | (A,,B,,C,E,) A,4 | (A,E,C,B,,) A,,4 | [A,,A,]4 [F,,F,]4 | A,,4 F,,4 | %170
 (A,,G,,A,,F,, A,,G,,A,,B,,) | (C,^B,,C,D, C,B,,C,D,) | z8 ||"^Het onweer. L' orage." z8 | %174
 (_B,,/=C,/D,/_E,/ =F,/E,/D,/C,/ B,,/C,/D,/E,/ F,2) | ^^F,8 | (E,=G, =CG, E,G, C2) | =C8 | %178
 (E,=G, =CG, E,G, (C2) | ^C8) |[K:treble] !//-!G,2 G2 !//-!G,2 G2 | %181
 !//!F,!//!F !//!^E,!//!^E !//!F,!//!F ^D2 | (F2 ^E6) | (!//-!G,2 G2) (!//-!G,2 G2) | %184
 (!//-!A,2 A2) (!//-!A,2 A2) | (!//-!G,2 G2) (!//-!G,2 G2) | %186
[K:bass] (G,,/^A,,/^B,,/C,/ ^D,/C,/B,,/A,,/ G,,/A,,/B,,/C,/ D,2) |"^De regen. La Pluie." z8 || %188
[K:E][M:2/4] .C,.C .D,.D | .E,.E .C,.C | .C,.C .D,.D | .E,.E .C,.C |[K:treble] .G,.G .A,.A | %193
 .G,.G .^^F,.^^F | .G,.G .A,.A | .G,.G .^^F,.^^F |[K:bass] .C,.C .D,.D | .E,.E .C,.C | %198
 .C,.C .D,.D | .E,.E .C,.C |[K:treble] .A,.A .B,.B | .Cc- c2 | .A,.A .B,.B | .Cc- c2 || %204
[M:4/4][K:bass] (A,,/B,,/C,/D,/ E,/D,/C,/B,,/ A,,/B,,/C,/D,/ E,2) | %205
 (A,,/B,,/C,/D,/ E,/D,/C,/B,,/ A,,/B,,/C,/D,/ E,2) ||[K:A] z8 | z8 | z8 | z8 | z8 | z8 | z8 || %213
[K:F] [F,,F,]2 [C,,C,]2 [F,,F,]2 [C,,C,]2 | [F,,F,]2 [C,,C,]2 [F,,F,]2 [C,,C,]2 | %215
 [F,,F,]2 [C,,C,]2 [F,,F,]2 [C,,C,]2 | G,2 G,,2 [C,,C,]4 | [G,,G,]2 [D,,D,]2 [G,,G,]2 [D,,D,]2 | %218
 [G,,G,]2 [D,,D,]2 [G,,G,]2 [D,,D,]2 | D,,2 D,2 D,,2 D,2 | [A,,A,]8 | %221
 [F,,F,]2 [C,,C,]2 [F,,F,]2 [C,,C,]2 | [F,,F,]2 [C,,C,]2 [F,,F,]2 [C,,C,]2 | %223
 [F,,F,]2 [C,,C,]2 [F,,F,]2 [C,,C,]2 | G,2 G,,2 [C,,C,]4 | [G,,G,]2 [D,,D,]2 [G,,G,]2 [D,,D,]2 | %226
 A,,2 ^C,2 E,2 A,2 | B,2 B,,2 B,2 B,,2 | F,2 F,,2 C,2 C,,2 | !//-!F,,2 F,2 !//-!F,,2 F,2 | %230
 !//-!F,,2 F,2 !//-!F,,2 F,2 | !//-!C,,2 C,2 !//-!C,,2 C,2 | !//-!F,,2 F,2 !//-!F,,2 F,2 | %233
 !//-!F,,2 F,2 !//-!F,,2 F,2 | !//-!F,,2 F,2 !//-!F,,2 F,2 | !//-!C,,2 C,2 !//-!C,,2 C,2 | %236
 [F,,F,]4 [B,,F,]4 | [F,,F,]4 [B,,F,]4 | !//-!F,,2 F,2 !//-!F,,2 F,2 | [F,,F,]2 z2 z4 |] %240

